public/assets/img/svg/embed/toolbox.svg

<?xml version="1.0" encoding="UTF-8" standalone="no"?>
<svg width="43px" height="42px" viewBox="0 0 43 42" version="1.1" xmlns="http://www.w3.org/2000/svg" xmlns:xlink="http://www.w3.org/1999/xlink" xmlns:sketch="http://www.bohemiancoding.com/sketch/ns">
    <!-- Generator: Sketch 3.2.2 (9983) - http://www.bohemiancoding.com/sketch -->
    <title>Fill 187</title>
    <desc>Created with Sketch.</desc>
    <defs></defs>
    <g id="UI" stroke="none" stroke-width="1" fill="none" fill-rule="evenodd" sketch:type="MSPage">
        <g id="Story" sketch:type="MSArtboardGroup" transform="translate(-695.000000, -44.000000)" fill="#000000">
            <path d="M706.416125,59.7832037 L711.562125,64.9292037 C711.708125,65.0762037 711.900125,65.1492037 712.092125,65.1492037 C712.284125,65.1492037 712.476125,65.0762037 712.623125,64.9292037 C712.916125,64.6362037 712.916125,64.1622037 712.623125,63.8692037 L707.127125,58.3722037 C706.909125,58.1552037 706.583125,58.0922037 706.298125,58.2152037 C703.792125,59.3032037 701.056125,58.8942037 699.329125,57.1742037 C697.869125,55.7112037 697.357125,53.5032037 697.912125,51.3252037 L701.491125,54.9022037 C701.700125,55.1092037 702.008125,55.1752037 702.283125,55.0742037 L705.600125,53.8462037 C705.804125,53.7702037 705.966125,53.6092037 706.042125,53.4032037 L707.266125,50.0962037 C707.368125,49.8222037 707.300125,49.5132037 707.093125,49.3062037 L703.512125,45.7212037 C705.694125,45.1642037 707.900125,45.6772037 709.365125,47.1422037 C711.085125,48.8612037 711.493125,51.5962037 710.404125,54.1102037 C710.282125,54.3922037 710.345125,54.7212037 710.562125,54.9382037 L716.058125,60.4332037 C716.351125,60.7262037 716.825125,60.7262037 717.119125,60.4332037 C717.412125,60.1402037 717.412125,59.6652037 717.119125,59.3732037 L711.972125,54.2272037 C713.056125,51.2782037 712.472125,48.1262037 710.425125,46.0812037 C708.279125,43.9342037 704.906125,43.3962037 701.837125,44.7112037 C701.609125,44.8092037 701.443125,45.0142037 701.396125,45.2582037 C701.349125,45.5022037 701.425125,45.7542037 701.601125,45.9312037 L705.693125,50.0262037 L704.755125,52.5592037 L702.212125,53.5002037 L698.120125,49.4122037 C697.943125,49.2362037 697.687125,49.1582037 697.448125,49.2062037 C697.203125,49.2542037 696.997125,49.4202037 696.900125,49.6492037 C695.591125,52.7212037 696.128125,56.0912037 698.271125,58.2352037 C700.321125,60.2822037 703.472125,60.8652037 706.416125,59.7832037 L706.416125,59.7832037 Z M710.146125,71.2072037 L727.777125,53.5782037 L728.372125,54.1722037 C728.513125,54.3142037 728.704125,54.3922037 728.903125,54.3922037 L728.921125,54.3922037 C729.125125,54.3872037 729.321125,54.2992037 729.458125,54.1472037 L733.749125,49.4352037 C734.019125,49.1382037 734.007125,48.6822037 733.725125,48.3992037 L731.896125,46.5742037 C731.612125,46.2892037 731.157125,46.2802037 730.860125,46.5492037 L726.149125,50.8382037 C725.996125,50.9762037 725.908125,51.1702037 725.903125,51.3752037 C725.898125,51.5812037 725.979125,51.7782037 726.122125,51.9232037 L726.716125,52.5172037 L709.086125,70.1472037 L706.416125,67.4772037 C706.134125,67.1962037 705.637125,67.1962037 705.355125,67.4772037 L696.202125,76.6322037 C694.600125,78.2352037 694.599125,80.8442037 696.200125,82.4482037 L697.878125,84.1222037 C698.650125,84.8972037 699.683125,85.3242037 700.784125,85.3242037 C701.887125,85.3242037 702.920125,84.8962037 703.692125,84.1222037 L712.847125,74.9682037 C712.987125,74.8282037 713.068125,74.6362037 713.068125,74.4382037 C713.068125,74.2392037 712.987125,74.0482037 712.847125,73.9082037 L710.146125,71.2072037 L710.146125,71.2072037 Z M731.341125,48.1402037 L732.157125,48.9552037 L728.878125,52.5562037 L727.740125,51.4182037 L731.341125,48.1402037 L731.341125,48.1402037 Z M702.629125,83.0622037 C701.650125,84.0442037 699.919125,84.0442037 698.939125,83.0622037 L697.262125,81.3872037 C696.244125,80.3692037 696.245125,78.7112037 697.263125,77.6932037 L702.925125,72.0302037 L708.271125,77.4232037 L702.629125,83.0622037 L702.629125,83.0622037 Z M709.331125,76.3632037 L703.984125,70.9692037 L705.886125,69.0682037 L711.257125,74.4382037 L709.331125,76.3632037 L709.331125,76.3632037 Z M735.383125,71.0412037 C733.337125,68.9952037 730.191125,68.4112037 727.237125,69.4922037 L720.923125,63.1762037 C720.630125,62.8832037 720.155125,62.8832037 719.862125,63.1762037 C719.569125,63.4692037 719.569125,63.9442037 719.862125,64.2372037 L726.527125,70.9012037 C726.745125,71.1182037 727.074125,71.1812037 727.355125,71.0592037 C729.869125,69.9732037 732.604125,70.3812037 734.321125,72.1022037 C735.790125,73.5692037 736.302125,75.7782037 735.742125,77.9542037 L732.162125,74.3722037 C731.954125,74.1652037 731.645125,74.0982037 731.370125,74.2002037 L728.067125,75.4262037 C727.863125,75.5012037 727.700125,75.6622037 727.624125,75.8672037 L726.388125,79.1782037 C726.284125,79.4542037 726.353125,79.7632037 726.561125,79.9712037 L730.144125,83.5532037 C727.962125,84.1092037 725.754125,83.5972037 724.290125,82.1322037 C722.571125,80.4122037 722.163125,77.6772037 723.249125,75.1662037 C723.371125,74.8842037 723.309125,74.5562037 723.091125,74.3382037 L716.427125,67.6722037 C716.134125,67.3792037 715.659125,67.3792037 715.366125,67.6722037 C715.073125,67.9642037 715.073125,68.4402037 715.366125,68.7332037 L721.681125,75.0492037 C720.600125,77.9952037 721.184125,81.1462037 723.230125,83.1932037 C724.595125,84.5592037 726.457125,85.2732037 728.423125,85.2732037 C729.545125,85.2732037 730.702125,85.0402037 731.819125,84.5622037 C732.048125,84.4642037 732.214125,84.2592037 732.261125,84.0152037 C732.308125,83.7702037 732.230125,83.5182037 732.054125,83.3422037 L727.962125,79.2512037 L728.909125,76.7132037 L731.441125,75.7742037 L735.531125,79.8642037 C735.706125,80.0392037 735.958125,80.1182037 736.203125,80.0702037 C736.446125,80.0232037 736.652125,79.8582037 736.751125,79.6292037 C738.069125,76.5602037 737.532125,73.1892037 735.383125,71.0412037 L735.383125,71.0412037 Z" id="Fill-187" sketch:type="MSShapeGroup"></path>
        </g>
    </g>
</svg>

<?xml version="1.0" encoding="utf-8"?>
<svg version="1.1" xmlns="http://www.w3.org/2000/svg" xmlns:xlink="http://www.w3.org/1999/xlink" x="0px" y="0px"
	 width="42.465px" height="41.324px" viewBox="695 44 42.465 41.324" enable-background="new 695 44 42.465 41.324"
	 xml:space="preserve">
<path d="M706.416,59.783l5.146,5.146c0.146,0.147,0.338,0.22,0.53,0.22c0.192,0,0.384-0.073,0.531-0.22
	c0.293-0.293,0.293-0.767,0-1.06l-5.496-5.497c-0.218-0.217-0.544-0.28-0.829-0.157c-2.506,1.088-5.242,0.679-6.969-1.041
	c-1.46-1.463-1.972-3.671-1.417-5.849l3.579,3.577c0.209,0.207,0.517,0.273,0.792,0.172l3.317-1.228
	c0.204-0.076,0.366-0.237,0.442-0.443l1.224-3.307c0.102-0.274,0.034-0.583-0.173-0.79l-3.581-3.585
	c2.182-0.557,4.388-0.044,5.853,1.421c1.72,1.719,2.128,4.454,1.039,6.968c-0.122,0.282-0.059,0.611,0.158,0.828l5.496,5.495
	c0.293,0.293,0.767,0.293,1.061,0c0.293-0.293,0.293-0.768,0-1.06l-5.147-5.146c1.084-2.949,0.5-6.101-1.547-8.146
	c-2.146-2.147-5.519-2.685-8.588-1.37c-0.228,0.098-0.394,0.303-0.441,0.547c-0.047,0.244,0.029,0.496,0.205,0.673l4.092,4.095
	l-0.938,2.533l-2.543,0.941l-4.092-4.088c-0.177-0.176-0.433-0.254-0.672-0.206c-0.245,0.048-0.451,0.214-0.548,0.443
	c-1.309,3.072-0.772,6.442,1.371,8.586C700.321,60.282,703.472,60.865,706.416,59.783L706.416,59.783z M710.146,71.207
	l17.631-17.629l0.595,0.594c0.141,0.142,0.332,0.22,0.531,0.22h0.018c0.204-0.005,0.4-0.093,0.537-0.245l4.291-4.712
	c0.27-0.297,0.258-0.753-0.024-1.036l-1.829-1.825c-0.284-0.285-0.739-0.294-1.036-0.025l-4.711,4.289
	c-0.153,0.138-0.241,0.332-0.246,0.537c-0.005,0.206,0.076,0.403,0.219,0.548l0.594,0.594l-17.63,17.63l-2.67-2.67
	c-0.282-0.281-0.779-0.281-1.061,0l-9.153,9.155c-1.602,1.603-1.603,4.212-0.002,5.816l1.678,1.674
	c0.772,0.775,1.805,1.202,2.906,1.202c1.103,0,2.136-0.428,2.908-1.202l9.155-9.154c0.14-0.14,0.221-0.332,0.221-0.53
	c0-0.199-0.081-0.39-0.221-0.53L710.146,71.207L710.146,71.207z M731.341,48.14l0.816,0.815l-3.279,3.601l-1.138-1.138
	L731.341,48.14L731.341,48.14z M702.629,83.062c-0.979,0.982-2.71,0.982-3.69,0l-1.677-1.675c-1.018-1.018-1.017-2.676,0.001-3.694
	l5.662-5.663l5.346,5.393L702.629,83.062L702.629,83.062z M709.331,76.363l-5.347-5.394l1.902-1.901l5.371,5.37L709.331,76.363
	L709.331,76.363z M735.383,71.041c-2.046-2.046-5.192-2.63-8.146-1.549l-6.314-6.316c-0.293-0.293-0.768-0.293-1.061,0
	c-0.293,0.293-0.293,0.768,0,1.061l6.665,6.664c0.218,0.217,0.547,0.28,0.828,0.158c2.514-1.086,5.249-0.678,6.966,1.043
	c1.469,1.467,1.981,3.676,1.421,5.852l-3.58-3.582c-0.208-0.207-0.517-0.274-0.792-0.172l-3.303,1.226
	c-0.204,0.075-0.367,0.236-0.443,0.441l-1.236,3.311c-0.104,0.276-0.035,0.585,0.173,0.793l3.583,3.582
	c-2.182,0.556-4.39,0.044-5.854-1.421c-1.719-1.72-2.127-4.455-1.041-6.966c0.122-0.282,0.06-0.61-0.158-0.828l-6.664-6.666
	c-0.293-0.293-0.768-0.293-1.061,0c-0.293,0.292-0.293,0.768,0,1.061l6.315,6.316c-1.081,2.946-0.497,6.097,1.549,8.144
	c1.365,1.366,3.227,2.08,5.193,2.08c1.122,0,2.279-0.233,3.396-0.711c0.229-0.098,0.395-0.303,0.442-0.547
	c0.047-0.245-0.031-0.497-0.207-0.673l-4.092-4.091l0.947-2.538l2.532-0.939l4.09,4.09c0.175,0.175,0.427,0.254,0.672,0.206
	c0.243-0.047,0.449-0.212,0.548-0.441C738.069,76.56,737.532,73.189,735.383,71.041L735.383,71.041z"/>
</svg>
